usr/share/icons/biglinux-icons-material/scalable/apps/goverlay.svg

<?xml version="1.0" encoding="UTF-8" standalone="no"?>
<svg
   width="24"
   height="24"
   viewBox="0 0 24 24"
   fill="none"
   version="1.1"
   id="svg154"
   sodipodi:docname="app.svg"
   inkscape:version="1.2.2 (b0a8486541, 2022-12-01)"
   xml:space="preserve"
   inkscape:export-filename="../../../../svg/icons que não tem no pacote/heroic.svg"
   inkscape:export-xdpi="96"
   inkscape:export-ydpi="96"
   xmlns:inkscape="http://www.inkscape.org/namespaces/inkscape"
   xmlns:sodipodi="http://sodipodi.sourceforge.net/DTD/sodipodi-0.dtd"
   xmlns:xlink="http://www.w3.org/1999/xlink"
   xmlns="http://www.w3.org/2000/svg"
   xmlns:svg="http://www.w3.org/2000/svg"
   xmlns:sketch="http://www.bohemiancoding.com/sketch/ns"><sodipodi:namedview
     id="namedview156"
     pagecolor="#ffffff"
     bordercolor="#000000"
     borderopacity="1"
     inkscape:showpageshadow="0"
     inkscape:pageopacity="1"
     inkscape:pagecheckerboard="false"
     inkscape:deskcolor="#ffffff"
     showgrid="true"
     inkscape:zoom="32"
     inkscape:cx="9.609375"
     inkscape:cy="15.453125"
     inkscape:window-width="1920"
     inkscape:window-height="1052"
     inkscape:window-x="0"
     inkscape:window-y="0"
     inkscape:window-maximized="1"
     inkscape:current-layer="svg154"
     showguides="true"
     guidecolor="#ff0000"
     guideopacity="1"
     inkscape:lockguides="true"
     showborder="true"
     borderlayer="true"><inkscape:grid
       type="xygrid"
       id="grid356"
       color="#000000"
       opacity="0.10196078"
       empcolor="#000000"
       empopacity="0.10196078"
       snapvisiblegridlinesonly="true"
       enabled="true"
       visible="true"
       dotted="false" /><sodipodi:guide
       position="4,12"
       orientation="-1,0"
       id="guide764"
       inkscape:locked="true"
       inkscape:label="left-circle"
       inkscape:color="rgb(255,0,0)" /><sodipodi:guide
       position="5,12"
       orientation="-1,0"
       id="guide2218"
       inkscape:locked="true"
       inkscape:label="left-square"
       inkscape:color="rgb(255,0,0)" /><sodipodi:guide
       position="12,20"
       orientation="0,1"
       id="guide2220"
       inkscape:locked="true"
       inkscape:label="top-circle"
       inkscape:color="rgb(255,0,0)" /><sodipodi:guide
       position="12,5"
       orientation="0,1"
       id="guide2222"
       inkscape:locked="true"
       inkscape:label="bottom-square"
       inkscape:color="rgb(255,0,0)" /><sodipodi:guide
       position="12,4"
       orientation="0,1"
       id="guide2224"
       inkscape:locked="true"
       inkscape:label="bottom-circle"
       inkscape:color="rgb(255,0,0)" /><sodipodi:guide
       position="19,12"
       orientation="-1,0"
       id="guide2226"
       inkscape:locked="true"
       inkscape:label="right-square"
       inkscape:color="rgb(255,0,0)" /><sodipodi:guide
       position="20,12"
       orientation="-1,0"
       id="guide2228"
       inkscape:locked="true"
       inkscape:label="right-circle"
       inkscape:color="rgb(255,0,0)" /><sodipodi:guide
       position="12,19"
       orientation="0,1"
       id="guide2230"
       inkscape:locked="true"
       inkscape:label="top-square"
       inkscape:color="rgb(255,0,0)" /><sodipodi:guide
       position="12,12"
       orientation="1,0"
       id="guide765"
       inkscape:locked="true" /><sodipodi:guide
       position="12,12"
       orientation="0,-1"
       id="guide767"
       inkscape:locked="true" /><sodipodi:guide
       position="12,12"
       orientation="0.70710678,0.70710678"
       id="guide2266"
       inkscape:locked="true"
       inkscape:label=""
       inkscape:color="rgb(255,0,0)" /><sodipodi:guide
       position="12,12"
       orientation="-0.70710678,0.70710678"
       id="guide2994"
       inkscape:locked="true"
       inkscape:label=""
       inkscape:color="rgb(255,0,0)" /><sodipodi:guide
       position="3,12"
       orientation="-1,0"
       id="guide131543"
       inkscape:locked="true"
       inkscape:label="left-horizontal"
       inkscape:color="rgb(255,0,0)" /><sodipodi:guide
       position="12,21"
       orientation="0,1"
       id="guide131545"
       inkscape:locked="true"
       inkscape:label="top-vertical"
       inkscape:color="rgb(255,0,0)" /><sodipodi:guide
       position="21,12"
       orientation="-1,0"
       id="guide131547"
       inkscape:locked="true"
       inkscape:label="right-horizontal"
       inkscape:color="rgb(255,0,0)" /><sodipodi:guide
       position="12,3"
       orientation="0,1"
       id="guide131549"
       inkscape:locked="true"
       inkscape:label="bottom-vertical"
       inkscape:color="rgb(255,0,0)" /></sodipodi:namedview><defs
     id="defs152"><linearGradient
       inkscape:collect="always"
       id="linearGradient480"><stop
         style="stop-color:#535353;stop-opacity:1"
         offset="0"
         id="stop476" /><stop
         style="stop-color:#a6a6a6;stop-opacity:1"
         offset="1"
         id="stop478" /></linearGradient><style
       type="text/css"
       id="current-color-scheme">
      .ColorScheme-Text {
        color:#31363b;
      }
      .ColorScheme-Background {
        color:#eff0f1;
      }
      .ColorScheme-Highlight {
        color:#3daee9;
      }
      .ColorScheme-ViewText {
        color:#31363b;
      }
      .ColorScheme-ViewBackground {
        color:#fcfcfc;
      }
      .ColorScheme-ViewHover {
        color:#93cee9;
      }
      .ColorScheme-ViewFocus{
        color:#3daee9;
      }
      .ColorScheme-ButtonText {
        color:#31363b;
      }
      .ColorScheme-ButtonBackground {
        color:#eff0f1;
      }
      .ColorScheme-ButtonHover {
        color:#93cee9;
      }
      .ColorScheme-ButtonFocus{
        color:#3daee9;
      }
      </style><style
       type="text/css"
       id="current-color-scheme-9">
      .ColorScheme-Text {
        color:#31363b;
      }
      .ColorScheme-Background {
        color:#eff0f1;
      }
      .ColorScheme-Highlight {
        color:#3daee9;
      }
      .ColorScheme-ViewText {
        color:#31363b;
      }
      .ColorScheme-ViewBackground {
        color:#fcfcfc;
      }
      .ColorScheme-ViewHover {
        color:#93cee9;
      }
      .ColorScheme-ViewFocus{
        color:#3daee9;
      }
      .ColorScheme-ButtonText {
        color:#31363b;
      }
      .ColorScheme-ButtonBackground {
        color:#eff0f1;
      }
      .ColorScheme-ButtonHover {
        color:#93cee9;
      }
      .ColorScheme-ButtonFocus{
        color:#3daee9;
      }
      </style><style
       type="text/css"
       id="current-color-scheme-2">
      .ColorScheme-Text {
        color:#31363b;
      }
      .ColorScheme-Background {
        color:#eff0f1;
      }
      .ColorScheme-Highlight {
        color:#3daee9;
      }
      .ColorScheme-ViewText {
        color:#31363b;
      }
      .ColorScheme-ViewBackground {
        color:#fcfcfc;
      }
      .ColorScheme-ViewHover {
        color:#93cee9;
      }
      .ColorScheme-ViewFocus{
        color:#3daee9;
      }
      .ColorScheme-ButtonText {
        color:#31363b;
      }
      .ColorScheme-ButtonBackground {
        color:#eff0f1;
      }
      .ColorScheme-ButtonHover {
        color:#93cee9;
      }
      .ColorScheme-ButtonFocus{
        color:#3daee9;
      }
      </style><style
       type="text/css"
       id="current-color-scheme-3">
      .ColorScheme-Text {
        color:#31363b;
      }
      .ColorScheme-Background {
        color:#eff0f1;
      }
      .ColorScheme-Highlight {
        color:#3daee9;
      }
      .ColorScheme-ViewText {
        color:#31363b;
      }
      .ColorScheme-ViewBackground {
        color:#fcfcfc;
      }
      .ColorScheme-ViewHover {
        color:#93cee9;
      }
      .ColorScheme-ViewFocus{
        color:#3daee9;
      }
      .ColorScheme-ButtonText {
        color:#31363b;
      }
      .ColorScheme-ButtonBackground {
        color:#eff0f1;
      }
      .ColorScheme-ButtonHover {
        color:#93cee9;
      }
      .ColorScheme-ButtonFocus{
        color:#3daee9;
      }
      </style><style
       type="text/css"
       id="current-color-scheme-97">
      .ColorScheme-Text {
        color:#31363b;
      }
      .ColorScheme-Background {
        color:#eff0f1;
      }
      .ColorScheme-Highlight {
        color:#3daee9;
      }
      .ColorScheme-ViewText {
        color:#31363b;
      }
      .ColorScheme-ViewBackground {
        color:#fcfcfc;
      }
      .ColorScheme-ViewHover {
        color:#93cee9;
      }
      .ColorScheme-ViewFocus{
        color:#3daee9;
      }
      .ColorScheme-ButtonText {
        color:#31363b;
      }
      .ColorScheme-ButtonBackground {
        color:#eff0f1;
      }
      .ColorScheme-ButtonHover {
        color:#93cee9;
      }
      .ColorScheme-ButtonFocus{
        color:#3daee9;
      }
      </style><linearGradient
       inkscape:collect="always"
       xlink:href="#linearGradient480"
       id="linearGradient482"
       x1="52.79707"
       y1="97.091682"
       x2="50.808331"
       y2="-13.554457"
       gradientUnits="userSpaceOnUse"
       gradientTransform="matrix(0.24444444,0,0,0.24444444,-0.22222222,-0.22222222)" /><clipPath
       id="28a0eae2da"><path
         d="M 60.710938,107.31641 H 397.88281 V 354.40234 H 60.710938 Z m 0,0"
         clip-rule="nonzero"
         id="path3289" /></clipPath><clipPath
       id="0a5d9b100c"><path
         d="M 86.160156,107.31641 H 371.91797 c 14.05859,0 25.45312,11.39453 25.45312,25.44921 v 196.1836 c 0,14.05859 -11.39453,25.45312 -25.45312,25.45312 H 86.160156 c -14.054687,0 -25.449218,-11.39453 -25.449218,-25.45312 v -196.1836 c 0,-14.05468 11.394531,-25.44921 25.449218,-25.44921"
         clip-rule="nonzero"
         id="path3292" /></clipPath><clipPath
       id="9eb0b530c3"><path
         d="M 95.664062,137.89844 H 362.41406 V 323.81641 H 95.664062 Z m 0,0"
         clip-rule="nonzero"
         id="path3295" /></clipPath></defs><path
     d="M 12,0.99999998 C 2,0.99999998 0.99999998,6 0.99999998,12 0.99999998,20 4.0000001,23 12,23 20,23 23,20 23,12 23,6 22,0.99999998 12,0.99999998 Z"
     sketch:type="MSShapeGroup"
     id="path6"
     style="font-variation-settings:normal;display:inline;opacity:1;vector-effect:none;fill:url(#linearGradient482);fill-opacity:1;stroke-width:1.11627;stroke-linecap:butt;stroke-linejoin:miter;stroke-miterlimit:4;stroke-dasharray:none;stroke-dashoffset:0;stroke-opacity:1;-inkscape-stroke:none;stop-color:#000000;stop-opacity:1"
     sodipodi:nodetypes="sssss"
     inkscape:label="Shape"
     sodipodi:insensitive="true" /><g
     id="g3375"
     transform="matrix(0.09337593,0,0,0.09337593,-22.948112,3.5424822)"><g
       clip-path="url(#28a0eae2da)"
       id="g3312"
       transform="matrix(0.35277778,0,0,0.35277778,277.88771,-7.6096282)"><g
         clip-path="url(#0a5d9b100c)"
         id="g3310"><path
           fill="#ffffff"
           d="M 60.710938,107.31641 H 397.23828 V 354.40234 H 60.710938 Z m 0,0"
           fill-opacity="1"
           fill-rule="nonzero"
           id="path3308" /></g></g><g
       clip-path="url(#9eb0b530c3)"
       id="g3316"
       transform="matrix(0.35277778,0,0,0.35277778,277.88771,-7.6096282)"><path
         fill="#313539"
         d="M 95.664062,137.89844 H 362.69922 V 323.85937 H 95.664062 Z m 0,0"
         fill-opacity="1"
         fill-rule="nonzero"
         id="path3314" /></g><path
       stroke-linecap="round"
       fill="none"
       stroke-linejoin="miter"
       d="m 330.1126,129.70913 h 99.56053"
       stroke="#ffffff"
       stroke-width="10.0377"
       stroke-opacity="1"
       stroke-miterlimit="4"
       id="path3318" /><path
       stroke-linecap="round"
       fill="none"
       stroke-linejoin="miter"
       d="M 429.60145,128.71969 V 51.085204"
       stroke="#ffffff"
       stroke-width="10.0408"
       stroke-opacity="1"
       stroke-miterlimit="4"
       id="path3320" /><path
       stroke-linecap="round"
       fill="none"
       stroke-linejoin="miter"
       d="m 344.66193,145.88178 h 99.56052"
       stroke="#ffffff"
       stroke-width="10.0377"
       stroke-opacity="1"
       stroke-miterlimit="4"
       id="path3322" /><path
       stroke-linecap="round"
       fill="none"
       stroke-linejoin="miter"
       d="M 444.15078,144.89235 V 67.257867"
       stroke="#ffffff"
       stroke-width="10.0408"
       stroke-opacity="1"
       stroke-miterlimit="4"
       id="path3324" /></g></svg>

<svg xmlns="http://www.w3.org/2000/svg" xmlns:xlink="http://www.w3.org/1999/xlink" xml:space="preserve" id="svg154" width="24" height="24" fill="none" version="1.1"><defs id="defs152"><clipPath id="28a0eae2da"><path id="path3289" d="M60.71 107.316h337.173v247.086H60.71Zm0 0" clip-rule="nonzero"/></clipPath><clipPath id="0a5d9b100c"><path id="path3292" d="M86.16 107.316h285.758c14.059 0 25.453 11.395 25.453 25.45v196.183c0 14.059-11.394 25.453-25.453 25.453H86.16c-14.055 0-25.45-11.394-25.45-25.453V132.766c0-14.055 11.395-25.45 25.45-25.45" clip-rule="nonzero"/></clipPath><clipPath id="9eb0b530c3"><path id="path3295" d="M95.664 137.898h266.75v185.918H95.664Zm0 0" clip-rule="nonzero"/></clipPath><linearGradient id="linearGradient480"><stop id="stop476" offset="0" style="stop-color:#535353;stop-opacity:1"/><stop id="stop478" offset="1" style="stop-color:#a6a6a6;stop-opacity:1"/></linearGradient><linearGradient xlink:href="#linearGradient480" id="linearGradient482" x1="52.797" x2="50.808" y1="97.092" y2="-13.554" gradientTransform="matrix(.24444 0 0 .24444 -.222 -.222)" gradientUnits="userSpaceOnUse"/><style id="current-color-scheme" type="text/css">.ColorScheme-Text{color:#31363b}.ColorScheme-Background{color:#eff0f1}.ColorScheme-Highlight{color:#3daee9}.ColorScheme-ViewText{color:#31363b}.ColorScheme-ViewBackground{color:#fcfcfc}.ColorScheme-ViewHover{color:#93cee9}.ColorScheme-ViewFocus{color:#3daee9}.ColorScheme-ButtonText{color:#31363b}.ColorScheme-ButtonBackground{color:#eff0f1}.ColorScheme-ButtonHover{color:#93cee9}.ColorScheme-ButtonFocus{color:#3daee9}</style></defs><path id="path6" d="M12 1C2 1 1 6 1 12c0 8 3 11 11 11s11-3 11-11c0-6-1-11-11-11Z" style="font-variation-settings:normal;display:inline;opacity:1;vector-effect:none;fill:url(#linearGradient482);fill-opacity:1;stroke-width:1.11627;stroke-linecap:butt;stroke-linejoin:miter;stroke-miterlimit:4;stroke-dasharray:none;stroke-dashoffset:0;stroke-opacity:1;-inkscape-stroke:none;stop-color:#000;stop-opacity:1"/><g id="g3375" transform="matrix(.09338 0 0 .09338 -22.948 3.542)"><g id="g3312" clip-path="url(#28a0eae2da)" transform="matrix(.35278 0 0 .35278 277.888 -7.61)"><g id="g3310" clip-path="url(#0a5d9b100c)"><path id="path3308" fill="#fff" fill-opacity="1" fill-rule="nonzero" d="M60.71 107.316h336.528v247.086H60.711Zm0 0"/></g></g><g id="g3316" clip-path="url(#9eb0b530c3)" transform="matrix(.35278 0 0 .35278 277.888 -7.61)"><path id="path3314" fill="#313539" fill-opacity="1" fill-rule="nonzero" d="M95.664 137.898H362.7V323.86H95.664Zm0 0"/></g><path id="path3318" fill="none" stroke="#fff" stroke-linecap="round" stroke-linejoin="miter" stroke-miterlimit="4" stroke-opacity="1" stroke-width="10.038" d="M330.113 129.71h99.56"/><path id="path3320" fill="none" stroke="#fff" stroke-linecap="round" stroke-linejoin="miter" stroke-miterlimit="4" stroke-opacity="1" stroke-width="10.041" d="M429.601 128.72V51.085"/><path id="path3322" fill="none" stroke="#fff" stroke-linecap="round" stroke-linejoin="miter" stroke-miterlimit="4" stroke-opacity="1" stroke-width="10.038" d="M344.662 145.882h99.56"/><path id="path3324" fill="none" stroke="#fff" stroke-linecap="round" stroke-linejoin="miter" stroke-miterlimit="4" stroke-opacity="1" stroke-width="10.041" d="M444.15 144.892V67.258"/></g></svg>
